images/left-arrow-svgrepo-com.svg

<svg fill="none" height="800" viewBox="0 0 24 24" width="800" xmlns="http://www.w3.org/2000/svg"><path clip-rule="evenodd" d="m11.7071 4.29289c.3905.39053.3905 1.02369 0 1.41422l-5.29289 5.29289h13.58579c.5523 0 1 .4477 1 1s-.4477 1-1 1h-13.58579l5.29289 5.2929c.3905.3905.3905 1.0237 0 1.4142s-1.0237.3905-1.4142 0l-7.00001-7c-.18753-.1875-.29289-.4419-.29289-.7071s.10536-.5196.29289-.7071l7.00001-7.00001c.3905-.39052 1.0237-.39052 1.4142 0z" fill="#000" fill-rule="evenodd"/></svg>

<?xml version="1.0" encoding="utf-8"?><!-- Uploaded to: SVG Repo, www.svgrepo.com, Generator: SVG Repo Mixer Tools -->
<svg width="800px" height="800px" viewBox="0 0 24 24" fill="none" xmlns="http://www.w3.org/2000/svg">
<path fill-rule="evenodd" clip-rule="evenodd" d="M11.7071 4.29289C12.0976 4.68342 12.0976 5.31658 11.7071 5.70711L6.41421 11H20C20.5523 11 21 11.4477 21 12C21 12.5523 20.5523 13 20 13H6.41421L11.7071 18.2929C12.0976 18.6834 12.0976 19.3166 11.7071 19.7071C11.3166 20.0976 10.6834 20.0976 10.2929 19.7071L3.29289 12.7071C3.10536 12.5196 3 12.2652 3 12C3 11.7348 3.10536 11.4804 3.29289 11.2929L10.2929 4.29289C10.6834 3.90237 11.3166 3.90237 11.7071 4.29289Z" fill="#000000"/>
</svg>
